X:1
T:James Gibb editions
T:Lo, God is here; let us adore - Barnby
%%score [ ( 1 2 ) ( 3 4 ) ]
L:1/8
Q:1/4=72
M:4/4
K:Eb
V:1 treble nm="Midi_74"
V:2 treble 
V:3 bass nm="Midi_74"
V:4 bass 
V:1
"^John Wesley\n(1703-91)""^St Justin (88. 88. 88)""^Lo, God is here; let us adore""^Joseph Barnby\n(1838-96)" B2 | %1
 A2 G2 F2 E2 | c2 BA G2 || G2 | =A2 B2 e2 d2 | c2 c2 B2 || B2 | A2 G2 F2 A2 | G3 F E2 || %9
[M:4/4] c2 | B2 =A2 B2 c2 | d2 c2 B2 || B2 | e2 d2 c2 B2 | A2 c2 B2 || A2 | G2 B2 A2 F2 | %17
 E2 F2 E4 || A4 G4 |] %19
V:2
 E2 | E2 E2 D2 E2 | E2 D2 E2 || G2 | F2 F2 F2 F2 | E2 E2 D2 || F2 | E2 E2 C2 F2 | D2 D2 C2 || %9
[M:4/4] G2 | F2 E2 D2 G2 | F2 E2 D2 || D2 | E2 E2 E2 =E2 | F2 F2 F2 || D2 | E2 _D2 C2 C2 | %17
 B,2 D2 E4 || E4 E4 |] %19
V:3
 G,2 | C2 B,2 A,2 G,2 | F,2 B,2 B,2 || ED | C2 B,2 =A,2 B,2 | B,G, =A,2 B,2 || B,2 | %7
 C2 B,2 A,2 C2 | =B,2 G,2 G,2 ||[M:4/4] E2 | D2 C2 B,2 B,2 | %11
 B,2"^1 Lo, God is here! let us adore,\nand own how dreadful is this place;\nlet all within us feel His power,\nand humbly bow before His face.\nWho knows His power, His grace who proves,\nserve Him with awe, with reverence love.\n\n2 Lo, God is here, whom day and night\nunited choirs of angels praise;\nto Him, enthroned above all height,\nthe host of heaven their anthems raise.\nDisdain not, Lord, our meaner song,\nwho praise Thee with a stammering tongue.\n\n3 Almighty Father, may our praise\nThy courts with grateful fragrance fill;\nstill may we stand before Thy face,\nstill hear and do Thy sovereign will.\nTo God whom earth and heaven adore,\nbe praise and glory evermore." =A,2 B,2 || %12
 B,2 | B,2 B,2 A,2 C2 | C2 A,2 B,2 || B,2 | B,2 E,2 E,2 A,2 | G,2 A,2 G,4 || C4 B,4 |] %19
V:4
 E,2 | E,2 E,2 B,,2 C,2 | A,,2 B,,2 E,2 || E,2 | E,2 D,2 C,2 B,,2 | F,2 F,2 B,,2 || D,2 | %7
 E,2 E,2 A,2 F,2 | G,2 =B,,2 C,2 ||[M:4/4] C,2 | F,2 F,2 G,2 E,2 | F,2 F,2 B,2 || B,2 | %13
 G,2 G,2 A,2 G,2 | F,2 E,2 D,2 || B,,2 | E,2 G,,2 A,,2 A,,2 | B,,2 B,,2 E,4 || A,,4 E,4 |] %19

